X:1
T:Norge, Norge
T:Norge, Norge
T:for mannskor
T:Johan Selmer
T:Bjørnstjerne Bjørnson
T:Basert på Norsk Musikkforlags utgave nr. 480 – N.M.O. 6187
T:Basert på Norsk Musikkforlags utgave nr. 480 – N.M.O. 6187
T:Basert på Norsk Musikkforlags utgave nr. 480 – N.M.O. 6187
T:Basert på Norsk Musikkforlags utgave nr. 480 – N.M.O. 6187
T:Basert på Norsk Musikkforlags utgave nr. 480 – N.M.O. 6187
T:Basert på Norsk Musikkforlags utgave nr. 480 – N.M.O. 6187
C:Johan Svendsen
Z:Bjørnstjerne Bjørnson
Z:Basert på Norsk Musikkforlags utgave nr. 480 – N.M.O. 6187
%%score [ ( 1 2 ) ( 3 4 ) ( 5 6 ) ( 7 8 ) ]
L:1/8
Q:1/2=80
M:2/2
K:D
V:1 treble-8 nm="Tenor I"
V:2 treble-8 
V:3 treble-8 nm="Tenor II"
V:4 treble-8 
V:5 bass nm="Bass I"
V:6 bass 
V:7 bass nm="Bass II"
V:8 bass 
V:1
"^Verdig, men frisk (M. M.)" B3 B B2 F2 | G3 G G2 D2 | (3EDE !>!F6- | F2 B,2 z4 || %4
w: Nor- ge, Nor- ge!|Nor- ge, Nor- ge!|Nor- * * *|* ge!|
w: Nor- ge, Nor- ge!|Nor- ge, Nor- ge!|Nor- * * *|* ge!|
[K:B][M:4/4]!p![Q:1/4=126]"^Livlig, lett og grasiøst" !tenuto!D2 E F !tenuto!G2 (A B) | %5
w: Blå- nen- de op af det|
w: Ski- bak- ke- lø- bets *|
 !tenuto!c2 B c !>!d4 | d3 d/ d/!<(! !>!d2 cd!<)! | !>!f3!>(! e e2 d2!>)! | G2!<(! A ^B c2 G2!<)! | %9
w: grå- grøn- ne hav.|ø- er om- kring som *|fug- le- un- ger,|fjor- de i tun- ger,|
w: skin- nen- de land.|sjø- ul- kens havn og *|fi- ske- lej- e,|flø- te- rens vej- e,|
!mf! ^B2 c d e2 c2 | ed c B dc B A |!p!!mf! Bc de f2 z2 | z8 | z2 z ^e e2 e2 | %14
w: fjor- de i tun- ger|ind * o- ver did, * hvor det|stil- * ner * af,||det stil- ner|
w: flø- te- rens vej- e,|gjæ- * te- rens fjæl- * ljom og|jø- * kel- * brand||og jø- kel-|
!<(! (f4!<)!!f!!>(! =g3) =e ||[M:2/4] c2!>)!!p! B2 || %16
w: af. El- ve,|da- le,|
w: brand. A- gre,|en- ge,|
[K:D][M:4/4]!p![Q:1/4=80]"^Rolig gående" A3 B B2 d2 | c2 d e e d d2 |!<(! (e2 f) g!<)! (f3 e) | %19
w: El- ve, da- le|føl- ges fra fjel- le- ne,|skog- ås og li _|
w: A- gre, en- ge,|ru- ner i skog- * lan\-det,|spred- * te skar, _|
!>(! d2 c B A2 F2!>)! | B2 B B c3 c |[Q:1/4=90]"^ilende"!<(! ^d2 c d!<)!!>(! f2 e2!>)! | %22
w: lan- ge- lig ef- ter,|Straks som det let- ter,|sjø- er og slet- ter,|
w: by- er som blom- ster,|el- ve- ne sky- der|ud, hvor det bry- der|
!mf![Q:1/4=80]"^a tempo"!>(! g2 f e!>)!!p! B2 c d |[Q:1/4=76]"^rit." d2 c2 d4 | %24
w: hel- ge- dags- fre- den med|tem- pel i.|
w: hvidt i- fra ha- vet, hvor|svær- men går.|
!mf!"^bredt og følt"!<(! d3 c!<)!!>(! f2 F2!>)! || %25
w: Nor- ge, Nor- ge!|
w: Nor- ge, Nor- ge!|
[M:2/2]!f![Q:1/2=88]"^Verdig og frisk, men litt beveget" B3 B B2 B,2 | B3 B B2 B,2 | %27
w: Nor- ge, Nor- ge!|Nor- ge, Nor- ge!|
w: ||
!p! B2 c d B2 d2 | d3 c c2 F2 |!mf![Q:1/4=150]"^poco rit." B2 c d B2 d2 | !>!d3 c c2 F2 || %31
w: Hyt- ter og hus og|in- gen bor- ge,|hyt- ter og hus og|in- gen bor- ge,|
w: ||||
[K:B]!p![Q:1/4=176]"^a tempo"!<(! F4 B2 d2!<)! |!f! !>!f6 f f | ^e6 e e | =e6 e e | (e2 d2) z4 | %36
w: blidt el- ler|hårdt, du er|vort, du er|vort, du er|vort, *|
w: |||||
 z8 | z4 z2 !>!F!>!F | (d8 | e4) A2 A2 | B8 |!f![Q:1/4=170]"^Bredt" B4 B4 |!p!!<(! =d8!<)! | %43
w: |du er|fræm-|* ti- dens|land!|Du er|fræm-|
w: |||||||
!f!!>(! c4 B4!>)! |!ff! !fermata!^d8 |] %45
w: ti- dens|land!|
w: ||
V:2
 x8 | x8 | x8 | x8 ||[K:B][M:4/4] x8 | x8 | x8 | x8 | x8 | x8 | x8 | x8 | x8 | x8 | x8 || %15
[M:2/4] x4 ||[K:D][M:4/4] x8 | x4 e2 d d | x8 | x8 | x8 | x8 | x8 | x8 | x8 ||[M:2/2] x8 | x8 | %27
 x8 | x8 | x8 | x8 ||[K:B] x8 | x8 | x8 | x8 | x8 | x8 | x8 | x8 | x8 | x8 | x8 | x8 | x8 | x8 |] %45
V:3
 B3 B B2 F2 | G3 G G2 D2 | (3EDE !>!F6- | F2 B,2 z4 || %4
w: Nor- ge, Nor- ge!|Nor- ge, Nor- ge!|Nor- * * *|* ge!|
w: Nor- ge, Nor- ge!|Nor- ge, Nor- ge!|Nor- * * *|* ge!|
[K:B][M:4/4]!p! !tenuto!D2 E F !tenuto!G2 (A B) | !tenuto!c2 B c !>!d4 | %6
w: Blå- nen- de op af det|grå- grøn- ne hav.|
w: Ski- bak- ke- lø- bets *|skin- nen- de land.|
 B3 B/ B/!<(! !>!B2 B2!<)! | !>!d3!>(! A A2 B2!>)! | G2!<(! G G G2 G2!<)! |!mf! G2 G ^B c2 G2 | %10
w: ø- er om- kring som|fug- le- un- ger,|fjor- de i tun- ger,|fjor- de i tun- ger|
w: sjø- ul- kens havn og|fi- ske- lej- e,|flø- te- rens vej- e,|flø- te- rens vej- e,|
 A2 A B Ac B A |!p!!mf! BA Bc c2 z2 | z8 | z2 z c c2 c2 |!<(! (c4!<)!!f!!>(! c3) c || %15
w: ind o- ver did, * hvor det|stil- * ner * af,||det stil- ner|af. El- ve,|
w: gjæ- te- rens fjæl- * ljom og|jø- * kel- * brand||og jø- kel-|brand. A- gre,|
[M:2/4] c2!>)!!p! B2 ||[K:D][M:4/4]!p! F3 F F2 E2 | G2 G G G F F2 |!<(! (A2 A) A!<)! A4 | %19
w: da- le,|El- ve, da- le|føl- ges fra fjel- le- ne,|skog- ås og li|
w: en- ge,|A- gre, en- ge,|ru- ner i skog- * lan\-det,|spred- * te skar,|
!>(! A2 c B A2 F2!>)! | F2 F F ^A3 A |!<(! B2 B B!<)!!>(! B2 G2!>)! | %22
w: lan- ge- lig ef- ter,|Straks som det let- ter,|sjø- er og slet- ter,|
w: by- er som blom- ster,|el- ve- ne sky- der|ud, hvor det bry- der|
!mf!!>(! B2 A G!>)!!p! B2 B B | A2 A2 A4 |!mf!!<(! d3 c!<)!!>(! f2 F2!>)! || %25
w: hel- ge- dags- fre- den med|tem- pel i.|Nor- ge, Nor- ge!|
w: hvidt i- fra ha- vet, hvor|svær- men går.|Nor- ge, Nor- ge!|
[M:2/2]!f! B3 B B2 B,2 | B3 B B2 B,2 |!p! B2 c d B2 d2 | d3 c c2 F2 |!mf! B2 B B B2 B2 | %30
w: Nor- ge, Nor- ge!|Nor- ge, Nor- ge!|Hyt- ter og hus og|in- gen bor- ge,|hyt- ter og hus og|
w: |||||
 !>!^A3 A A2 F2 ||[K:B]!p!!<(! F4 F2 B2!<)! |!f! !>!d6 d d | c6 c c | c6 c c | B4 z4 | z8 | %37
w: in- gen bor- ge,|blidt el- ler|hårdt, du er|vort, du er|vort, du er|vort,||
w: |||||||
 z4 z2 !>!F!>!F | (B8 | c4) A2 F2 | F8 |!f! B4 B4 |!p!!<(! B8!<)! |!f!!>(! B4 B4!>)! | %44
w: du er|fræm-|* ti- dens|land!|Du er|fræm-|ti- dens|
w: |||||||
!ff! !fermata!B8 |] %45
w: land!|
w: |
V:4
 x8 | x8 | x8 | x8 ||[K:B][M:4/4] x8 | x8 | x8 | x8 | x8 | x8 | x8 | x8 | x8 | x8 | x8 || %15
[M:2/4] x4 ||[K:D][M:4/4] x8 | x4 G2 F F | x8 | x8 | x8 | x8 | x8 | x8 | x8 ||[M:2/2] x8 | x8 | %27
 x8 | x8 | x8 | x8 ||[K:B] x8 | x8 | x8 | x8 | x8 | x8 | x8 | x8 | x8 | x8 | x8 | x8 | x8 | x8 |] %45
V:5
 B,3 B, B,2 F,2 | G,3 G, G,2 D,2 | (3E,D,E, !>!F,6- | F,2 B,,2 z4 || %4
w: Nor- ge, Nor- ge!|Nor- ge, Nor- ge!|Nor- * * *|* ge!|
w: Nor- ge, Nor- ge!|Nor- ge, Nor- ge!|Nor- * * *|* ge!|
[K:B][M:4/4]!p! !tenuto!B,,2 C, D, !tenuto!E,2 (F, G,) | !tenuto!A,2 G, A, !>!B,4 | %6
w: Blå- nen- de op af det|grå- grøn- ne hav.|
w: Ski- bak- ke- lø- bets *|skin- nen- de land.|
 B,3 B,/ B,/!<(! !>!B,2 B,2!<)! | !>!A,3!>(! F, F,2 F,2!>)! | E,2!<(! F, G, G,2 E,2!<)! | %9
w: ø- er om- kring som|fug- le- un- ger,|fjor- de i tun- ger,|
w: sjø- ul- kens havn og|fi- ske- lej- e,|flø- te- rens vej- e,|
!mf! G,2 G, F, E,2 G,2 | F,2 E, D, F,E, D, C, |!p!!mf! D,E, G,B, A,2 z2 | z8 | z2 z B, B,2 B,2 | %14
w: fjor- de i tun- ger|ind o- ver did, * hvor det|stil- * ner * af,||det stil- ner|
w: flø- te- rens vej- e,|gjæ- te- rens fjæl- * ljom og|jø- * kel- * brand||og jø- kel-|
!<(! (A,4!<)!!f!!>(! =A,3) A, ||[M:2/4] =A,2!>)!!p! B,2 ||[K:D][M:4/4]!p! F,3 D, D,2 B,,2 | %17
w: af. El- ve,|da- le,|El- ve, da- le|
w: brand. A- gre,|en- ge,|A- gre, en- ge,|
 E,2 E, E, E, F, F,2 |!<(! (A,2 A,) A,!<)! A,4 |!>(! B,2 A, G, F,2 D,2!>)! | D,2 D, D, F,3 F, | %21
w: føl- ges fra fjel- le- ne,|skog- ås og li|lan- ge- lig ef- ter,|Straks som det let- ter,|
w: ru- ner i skog- * lan\-det,|spred- * te skar,|by- er som blom- ster,|el- ve- ne sky- der|
!<(! F,2 F, F,!<)!!>(! G,2 G,2!>)! |!mf!!>(! E,2 E, E,!>)!!p! G,2 G, G, | F,2 E,G, F,4 | %24
w: sjø- er og slet- ter,|hel- ge- dags- fre- den med|tem- pel * i.|
w: ud, hvor det bry- der|hvidt i- fra ha- vet, hvor|svær- men * går.|
!mf!!<(! F,3 F,!<)!!>(! F,2 F,2!>)! ||[M:2/2]!f! B,3 B, B,2 B,,2 | B,3 B, B,2 B,,2 | %27
w: Nor- ge, Nor- ge!|Nor- ge, Nor- ge!|Nor- ge, Nor- ge!|
w: Nor- ge, Nor- ge!|||
!p! B,,2 C, D, B,,2 D,2 | D,3 C, C,2 F,2 |!mf! B,2 A, G, F,2 D,2 | !>!F,3 F, F,2 F,2 || %31
w: Hyt- ter og hus og|in- gen bor- ge,|hyt- ter og hus og|in- gen bor- ge,|
w: ||||
[K:B]!p!!<(! D,4 D,2 F,2!<)! |!f! !>!B,6 B, B, | B,6 B, B, | B,6 B, B, | B,4 z4 | !>!G,4 !>!B,4 | %37
w: blidt el- ler|hårdt, du er|vort, du er|vort, du er|vort,|du er|
w: ||||||
 !>!F,4 z4 | (F,2 G,A,) G,2 F,2 | G,4 E,2 E,2 | D,8 |!f! B,4 B,4 |!p!!<(! =G,8!<)! | %43
w: vort,|fræm- * * ti- dens,|fræm- ti- dens|land!|Du er|fræm-|
w: ||||||
!f!!>(! =G,4 G,4!>)! |!ff! !fermata!F,8 |] %45
w: ti- dens|land!|
w: ||
V:6
 x8 | x8 | x8 | x8 ||[K:B][M:4/4] x8 | x8 | x8 | x8 | x8 | x8 | x8 | x8 | x8 | x8 | x8 || %15
[M:2/4] x4 ||[K:D][M:4/4] x8 | x4 E,2 F, F, | x8 | x8 | x8 | x8 | x8 | x8 | x8 ||[M:2/2] x8 | x8 | %27
 x8 | x8 | x8 | x8 ||[K:B] x8 | x8 | x8 | x8 | x8 | x8 | x8 | x8 | x8 | x8 | x8 | x8 | x8 | x8 |] %45
V:7
 B,3 B, B,2 F,2 | G,3 G, G,2 D,2 | (3E,D,E, !>!F,6- | F,2 B,,2 z4 || %4
w: Nor- ge, Nor- ge!|Nor- ge, Nor- ge!|Nor- * * *|* ge!|
w: Nor- ge, Nor- ge!|Nor- ge, Nor- ge!|Nor- * * *|* ge!|
[K:B][M:4/4]!p! !tenuto!B,,2 C, D, !tenuto!E,2 (F, G,) | !tenuto!A,2 G, A, !>!B,4 | %6
w: Blå- nen- de op af det|grå- grøn- ne hav.|
w: Ski- bak- ke- lø- bets *|skin- nen- de land.|
 G,3 G,/ G,/!<(! !>!=G,2 G,2!<)! | !>!F,3!>(! C, C,2 B,,2!>)! | C,2!<(! G, F, E,2 C,2!<)! | %9
w: ø- er om- kring som|fug- le- un- ger,|fjor- de i tun- ger,|
w: sjø- ul- kens havn og|fi- ske- lej- e,|flø- te- rens vej- e,|
!mf! F,2 E, D, C,2 E,2 | C,D, E, F, F,E, (D, C,) |!p!!mf! B,A, (G, F,) E,D, (C, B,,) | %12
w: fjor- de i tun- ger|ind * o- ver did, * hvor det|stil- * ner * af, * hvor det|
w: flø- te- rens vej- e,|gjæ- * te- rens fjæl- * ljom *|gjæ- * te- rens fjæl- * ljom *|
 D,C, (B,, A,,) B,,C, D,^E, | F,2 z G, G,2 G,2 |!<(! (F,4!<)!!f!!>(! E,3) E, || %15
w: stil- * ner * stil- * ner *|af. det stil- ner|af. El- ve,|
w: fjæl- * ljom og jø- * kel- *|brand. og jø- kel-|brand. A- gre,|
[M:2/4] =G,2!>)!!p! G,2 ||[K:D][M:4/4]!p! D,3 G,, G,,2 G,,2 | A,,2 B,, C, C, D, D,2 | %18
w: da- le,|El- ve, da- le|føl- ges fra fjel- le- ne,|
w: en- ge,|A- gre, en- ge,|ru- ner i skog- * lan\-det,|
!<(! (C,2 D,) E,!<)! (D,3 C,) |!>(! B,,2 A,, G,, F,,A,, D,2!>)! | B,,2 D, F, C,3 F, | %21
w: skog- ås og li _|lan- ge- lig ef- * ter,|Straks som det let- ter,|
w: spred- * te skar, _|by- er som blom- * ster,|el- ve- ne sky- der|
!<(! F,2 F, F,!<)!!>(! G,2 G,2!>)! |!mf!!>(! G,,2 G,, G,,!>)!!p! G,F, E, D, | A,,2 A,,2 D,4 | %24
w: sjø- er og slet- ter,|hel- ge- dags- fre- * den, med|tem- pel i.|
w: ud, hvor det bry- der|hvidt i- fra ha- * vet, hvor|svær- men går.|
!mf!!<(! E,3 E,!<)!!>(! F,2 F,2!>)! ||[M:2/2]!f! B,3 B, B,2 B,,2 | B,3 B, B,2 B,,2 | %27
w: Nor- ge, Nor- ge!|Nor- ge, Nor- ge!|Nor- ge, Nor- ge!|
w: Nor- ge, Nor- ge!|||
!p! B,,2 C, D, B,,2 D,2 | D,3 C, C,2 F,2 |!mf! B,2 A, G, F,2 D,2 | !>!E,3 E, E,2 E,2 || %31
w: Hyt- ter og hus og|in- gen bor- ge,|hyt- ter og hus og|in- gen bor- ge,|
w: ||||
[K:B]!p!!<(! D,4 D,2 F,2!<)! |!f! !>!B,6 B, B, | G,6 G, G, | =G,6 ^^F, F, | !courtesy!^G,4 z4 | %36
w: blidt el- ler|hårdt, du er|vort, du er|vort, du er|vort,|
w: |||||
 !>!G,4 !>!B,4 | !>!F,4 z4 | (D,2 E,F,) E,2 D,2 | C,4 F,2 F,2 | B,,8 |!f! B,4 B,4 | %42
w: ||fræm- * * ti- dens,|fræm- ti- dens|land!|Du er|
w: ||||||
!p!!<(! E,8!<)! |!f!!>(! E,4 E,4!>)! |!ff! !fermata!B,,8 |] %45
w: fræm-|ti- dens|land!|
w: |||
V:8
 x8 | x8 | x8 | x8 ||[K:B][M:4/4] x8 | x8 | x8 | x8 | x8 | x8 | x8 | x8 | x8 | x8 | x8 || %15
[M:2/4] x4 ||[K:D][M:4/4] x8 | x4 C,2 D, D, | x8 | x8 | x8 | x8 | x8 | x8 | x8 ||[M:2/2] x8 | x8 | %27
 x8 | x8 | x8 | x8 ||[K:B] x8 | x8 | x8 | x8 | x8 | x8 | x8 | x8 | x8 | x8 | x8 | x8 | x8 | x8 |] %45

